src/images/single-assets/USDL.svg

<svg width="162" height="162" viewBox="0 0 162 162" fill="none" xmlns="http://www.w3.org/2000/svg">
<path d="M81.27 161.43C125.707 161.43 161.73 125.407 161.73 80.97C161.73 36.5332 125.707 0.51001 81.27 0.51001C36.8332 0.51001 0.810059 36.5332 0.810059 80.97C0.810059 125.407 36.8332 161.43 81.27 161.43Z" fill="#0000FF"/>
<path d="M126.84 32.51C114.791 22.172 99.436 16.4953 83.5601 16.51H83.33L80.45 16.6199L77.8101 16.74C62.1764 18.112 47.5158 24.9116 36.3701 35.96C25.2475 47.0753 18.4327 61.7786 17.14 77.45L16.91 80.0999L16.8 82.98C16.8053 98.9218 22.4761 114.343 32.8 126.49C33.138 126.896 33.5708 127.212 34.0601 127.41C34.5296 127.63 35.0414 127.746 35.5601 127.75H35.6801C36.7141 127.738 37.7033 127.326 38.4401 126.6L126.84 38.2C127.239 37.807 127.556 37.3378 127.77 36.8201C127.967 36.3041 128.046 35.7504 128 35.2C128.006 34.6822 127.886 34.1708 127.65 33.71C127.466 33.2727 127.19 32.8805 126.84 32.5601V32.51ZM120.84 35.73L83.77 72.68V22.68C97.2221 22.8071 110.255 27.3775 120.84 35.68V35.73ZM73.07 77.1699H23.47C24.7323 64.3682 30.0588 52.3065 38.67 42.75L73.07 77.1699ZM73.07 83.3899L36.02 120.45C27.7477 109.86 23.2152 96.8279 23.13 83.3899H73.07ZM77.5601 23.0701V72.68L43.14 38.26C52.7082 29.6685 64.7643 24.348 77.5601 23.0701V23.0701Z" fill="white"/>
</svg>

<svg xmlns="http://www.w3.org/2000/svg" width="162" height="162" fill="none"><path fill="#00F" d="M81.27 161.43c44.437 0 80.46-36.023 80.46-80.46S125.707.51 81.27.51.81 36.533.81 80.97s36.023 80.46 80.46 80.46"/><path fill="#fff" d="M126.84 32.51a66.37 66.37 0 0 0-43.28-16h-.23l-2.88.11-2.64.12a67.2 67.2 0 0 0-41.44 19.22 66.37 66.37 0 0 0-19.23 41.49l-.23 2.65-.11 2.88a67.22 67.22 0 0 0 16 43.51c.338.406.77.722 1.26.92.47.22.981.336 1.5.34h.12a4 4 0 0 0 2.76-1.15l88.4-88.4c.399-.393.716-.862.93-1.38.197-.516.276-1.07.23-1.62a3.2 3.2 0 0 0-.35-1.49 3.3 3.3 0 0 0-.81-1.15zm-6 3.22L83.77 72.68v-50a61 61 0 0 1 37.07 13zM73.07 77.17h-49.6a60.25 60.25 0 0 1 15.2-34.42zm0 6.22-37.05 37.06a60.83 60.83 0 0 1-12.89-37.06zm4.49-60.32v49.61L43.14 38.26a60.52 60.52 0 0 1 34.42-15.19"/></svg>
